X:3603
T:Leaving Liverpool
O:england
S:Digital Tradition, leavliv
D:Recorded by Lou Killen on 50 South,  Judy Collins, Clancy Bros Freeborn man
M:2/2
L:1/8
Q:1/2=100
W:Farewell to Prince's Landing Stage
W:River Mersey, fare thee well
W:I am bound for California
W:A place I know right well
W:
W:  Chorus:
W:  So fare thee well, my own true love
W:  When I return united we will be
W:  It's not the leaving of Liverpool that's grieving me
W:  But my darling when I think of thee
W:
W:I'm bound off for California
W:By the way of stormy Cape Horn
W:And I'm bound to write you a letter, love
W:When I am homeward bound
W:
W:I have signed on a Yankee Clipper ship
W:Davy Crockett is her name
W:And Burgess is the Captain of her
W:And they say she's a floating Hell
W:
W:I have shipped with Burgess once before
W:And I think I know him well
W:If a man's a seaman, he can get along
W:If not, then he's sure in Hell
W:
W:Farewell to lower Frederick Street
W:Ensign Terrace and Park Lane
W:For I think it will be a long, long time
W:Before I see you again
W:
W:Oh the sun is on the harbor, love
W:And I wish I could remain
W:For I know it will be a long, long time
W:Till I see you again
K:A
A,2-B,2 |C6E2|D2-C2 B,2-A,2|A4 A2-F2|E4 A,2B,2|\
C6E2|F4 E2-C2|B,8-|B,4 A,2B,2|
C6E2|C4 B,2-A,2|A4 A2-F2|E4 A,2B,2|\
C2E2 E2C2|B,6A,2|A,8-|A,4
G2-A2 |B6E2|E4 G2-B2|A6F2|E4 A,2B,2|\
C2E2 E3E|E2E2 F2E2|B,8-|B,2E2 E2D2|
C4- CCC2|D2C2 B,2A,2|A6-F2|E4 A,2B,2|\
C2E2 E2C2|B,6A,2|A,8-|A,4 ||


